X: 9402
T: Dangerous Intersection
R: reel
M: 4/4
K: Amixolydian
|:Aeae gedc|Aeae g2 gg|Aeae gedc|BcdB G2 GG|
Aeae gedc|Aeae gfga|bagf g/f/edB|GABG A2 AA:|
ABc/B/A eAfA|g2 ed cAA/A/A|ABc/B/A eAfA|gedB G2 GG|
ABc/B/A eAfA|g2 ed cAA/A/A|ABc/B/A BAGE|GEDC A,4:|

